loleaflet/images/lc_arrowshapes.up-right-down-arrow.svg

<svg viewBox="0 0 24 24" xmlns="http://www.w3.org/2000/svg"><path d="m7 2.5-4.500025 5h2.000025v9h-2.000025l4.500025 5 4.5-5h-1.9997563l-.0004875-2h6.9997568l.000487 2.25 4.999975-4.75-4.999975-4.5v2h-7v-2h2z" fill="#fff" stroke="#808080" stroke-linecap="round" stroke-linejoin="round"/></svg>

<svg viewBox="0 0 24 24" xmlns="http://www.w3.org/2000/svg"><path d="m 7,2.5 -4.5,5 H 4.5 v 9 H 2.5 L 7,21.5 l 4.5,-5 H 9.5 l -4.875e-4,-2 H 16.5 L 16.5,16.75 21.5,12 16.5,7.5 v 2 h -7 v -2 h 2 z" fill="#fff" stroke="#808080" stroke-linecap="round" stroke-linejoin="round"/></svg>
